X: 1
T: Be Thou My Vision
R: waltz
M: 3/4
L: 1/8
K: Gmaj
D2|G2 G2 AG|E2 D2 DE|G2 G2 A2|B4 dB|
A2 A2 A2|A2 B2 d2|e2 d2 B2|d4 d2|
e2 ef gf|e2 d2 B2|d2 G2 F2|E4 D2|
G2 B2 d2|ed B2 GB|A2 G2 G2|G4 ||


Tune 6415	Setting 20973

